public/logos/webstep.svg

<?xml version="1.0" encoding="UTF-8"?><svg id="Layer_2" xmlns="http://www.w3.org/2000/svg" viewBox="0 0 373.79 59.94"><defs><style>.cls-1{fill:#650729;}</style></defs><g id="Layer_1-2"><path class="cls-1" d="m217.05,24.61h-6.17c-4.56,0-7.47-1.54-7.47-6.24v-3.56c0-3.61,1.68-5.86,7.49-5.86h19.58V.46s-19.6,0-19.6,0c-10.62,0-16.3,4.37-16.3,14.23v3.81c0,10.65,5.54,14.72,16.05,14.72h5.92c4.54,0,7.65,1.93,7.65,6.72,0,1.09.01,2.58.01,3.56,0,5-1.67,7.4-7.42,7.4h-20.92l-.02,8.49h20.94c11.26,0,16.35-3.46,16.35-15.77v-3.81c0-10.01-4.8-15.2-16.1-15.2Z"/><polygon class="cls-1" points="239.06 8.89 252.69 8.89 252.69 59.39 261.57 59.39 261.57 8.89 275.2 8.89 275.2 .42 239.06 .42 239.06 8.89"/><path class="cls-1" d="m373.79,14.81c0-10.12-6.34-14.39-15.23-14.39h-22.36v58.97h9v-25.54h13.36c8.89.07,15.23-4.41,15.23-15.15v-3.89Zm-8.38,3.56c0,4.86-2.22,6.8-6.85,6.8h-13.36s0-16.23,0-16.23h13.36c3.67,0,6.85,1.76,6.85,5.86v3.56Z"/><path class="cls-1" d="m178.43,27.36c1.24-.58,3.93-2.41,3.93-8.86,0,0,0,.5,0-3.81,0-9.48-5.36-14.34-15.84-14.27h-19.82s-2.08,0-2.08,0v58.97h24.31c10.73,0,15.91-4.88,15.91-15.5,0-.27,0-4.08,0-4.08,0-9.91-5.05-12.09-6.43-12.45Zm-4.67-12.67v3.81c0,4.93-2.22,5.99-6.99,5.99h-13.14v-15.53h13.14c3.74,0,6.99,1.57,6.99,5.73Zm2.56,28.94c0,4.93-1.93,7.28-6.71,7.28h-15.98v-17.88h16.19c3.74,0,6.5,2.62,6.5,6.79v3.81Z"/><path class="cls-1" d="m96.93.42c-2.49,0-4.57,2.01-4.57,4.58v49.81c0,2.5,2.01,4.58,4.57,4.58h35.44v-8.48s-31.01,0-31.01,0v-17.88h22.64v-8.53h-22.64v-15.54s31.02,0,31.02,0V.42h-35.45Z"/><path class="cls-1" d="m289.72.42c-2.55,0-4.57,2.01-4.57,4.58v49.81c0,2.5,2,4.58,4.56,4.58h35.45v-8.48h-31.02v-17.88s22.64,0,22.64,0v-8.53h-22.64v-15.54s31.02,0,31.02,0V.42s-35.44,0-35.44,0Z"/><path class="cls-1" d="m63.76,45.75l-.42,4.68-.42-4.82L54.69,6.45c-.76-3.75-2.77-6.45-6.92-6.45s-6.23,2.71-6.92,6.45l-8.31,39.23-.42,4.75-.42-4.75-7.68-34.3C22.5,4.02,17.45.42,9.83.42H0v8.46h9.62c1.38,0,2.77.49,3.81,1.32,1.11.9,1.87,1.94,2.15,3.33l9.21,40.1c.83,3.4,3.25,6.31,6.99,6.31s6.65-2.36,7.41-5.83l8.17-39.09.35-3.71.28,3.71,8.24,39.09c.69,3.47,3.6,5.83,7.34,5.83s6.23-2.98,6.99-6.31L82.77.42h-8.86l-10.15,45.33Z"/></g></svg>

<svg id="Layer_1" data-name="Layer 1" xmlns="http://www.w3.org/2000/svg" viewBox="0 0 373.79 59.94"><defs><style>.cls-1{fill:#031e30;}</style></defs><path class="cls-1" d="M217.05,24.61h-6.17c-4.56,0-7.47-1.53-7.47-6.24V14.81c0-3.61,1.67-5.86,7.49-5.86h19.58V.46h-19.6c-10.62,0-16.3,4.36-16.3,14.22v3.81c0,10.65,5.54,14.73,16,14.73h5.93c4.54,0,7.65,1.93,7.65,6.71,0,1.09,0,2.58,0,3.57,0,5-1.66,7.39-7.42,7.39H195.88l0,8.5H216.8c11.26,0,16.35-3.46,16.35-15.77V39.81C233.15,29.8,228.35,24.61,217.05,24.61Z"/><polygon class="cls-1" points="239.06 8.89 252.69 8.89 252.69 59.39 261.57 59.39 261.57 8.89 275.2 8.89 275.2 0.42 239.06 0.42 239.06 8.89"/><path class="cls-1" d="M373.79,14.81c0-10.13-6.34-14.39-15.23-14.39H336.19v59h9V33.85h13.37c8.89.07,15.23-4.41,15.23-15.15Zm-8.38,3.56c0,4.86-2.22,6.8-6.85,6.8H345.19V9h13.37c3.67,0,6.85,1.76,6.85,5.86Z"/><path class="cls-1" d="M178.43,27.36c1.24-.58,3.93-2.41,3.93-8.87V14.68C182.36,5.21,177,.35,166.52.42H144.63v59h24.31c10.73,0,15.91-4.88,15.91-15.5V39.81C184.85,29.9,179.81,27.72,178.43,27.36Zm-4.67-12.68v3.81c0,4.93-2.21,6-7,6H153.63V9h13.14C170.51,9,173.76,10.52,173.76,14.68Zm2.56,28.94c0,4.93-1.93,7.28-6.71,7.28h-16V33h16.19c3.74,0,6.5,2.63,6.5,6.79Z"/><path class="cls-1" d="M96.93.42A4.56,4.56,0,0,0,92.36,5V54.81a4.56,4.56,0,0,0,4.57,4.58h35.44V50.9h-31V33H124V24.49H101.36V9h31V.42H96.93Z"/><path class="cls-1" d="M289.72.42A4.53,4.53,0,0,0,285.15,5V54.81a4.57,4.57,0,0,0,4.57,4.58h35.45V50.9h-31V33h22.64V24.49H294.14V9h31V.42Z"/><path class="cls-1" d="M63.76,45.75l-.41,4.68-.42-4.82L54.69,6.45C53.93,2.71,51.93,0,47.77,0s-6.23,2.71-6.92,6.45L32.54,45.68l-.42,4.75-.41-4.75L24,11.38C22.5,4,17.45.42,9.83.42H0V8.88H9.62a6.2,6.2,0,0,1,3.81,1.32,5.62,5.62,0,0,1,2.15,3.33l9.21,40.1c.83,3.4,3.25,6.31,7,6.31a7.35,7.35,0,0,0,7.41-5.83L47.36,15l.34-3.71L48,15l8.24,39.08a7.21,7.21,0,0,0,7.34,5.83c3.74,0,6.23-3,7-6.31L82.77.42H73.91Z"/></svg>
